images/hero-section__before.svg

<svg width="200" height="200" fill="none" xmlns="http://www.w3.org/2000/svg"><path fill="#79C8C7" d="M100 200h100V100H100z"/><path fill-rule="evenodd" clip-rule="evenodd" d="M100 200C44.772 200 0 155.228 0 100S44.772 0 100 0s100 44.772 100 100-44.772 100-100 100Zm0-67c-18.225 0-33-14.775-33-33s14.775-33 33-33 33 14.775 33 33-14.775 33-33 33Z" fill="#012F34"/><path fill-rule="evenodd" clip-rule="evenodd" d="M200 156h-4v4h4v-4Zm-11 0h4v4h-4v-4Zm0 8h4v4h-4v-4Zm4 8h-4v4h4v-4Zm-4 8h4v4h-4v-4Zm4 8h-4v4h4v-4Zm-4 8h4v4h-4v-4Zm-3-40h-4v4h4v-4Zm0 8h-4v4h4v-4Zm-4 8h4v4h-4v-4Zm4 8h-4v4h4v-4Zm-4 8h4v4h-4v-4Zm4 8h-4v4h4v-4Zm14-32h-4v4h4v-4Zm-21-8h-4v4h4v-4Zm0 8h-4v4h4v-4Zm-4 8h4v4h-4v-4Zm4 8h-4v4h4v-4Zm-4 8h4v4h-4v-4Zm4 8h-4v4h4v-4Zm21-24h-4v4h4v-4Zm-28-16h-4v4h4v-4Zm0 8h-4v4h4v-4Zm-4 8h4v4h-4v-4Zm4 8h-4v4h4v-4Zm-4 8h4v4h-4v-4Zm4 8h-4v4h4v-4Zm28-16h-4v4h4v-4Zm-35-24h-4v4h4v-4Zm0 8h-4v4h4v-4Zm-4 8h4v4h-4v-4Zm4 8h-4v4h4v-4Zm-4 8h4v4h-4v-4Zm4 8h-4v4h4v-4Zm35-8h-4v4h4v-4Zm-42-32h-4v4h4v-4Zm0 8h-4v4h4v-4Zm-4 8h4v4h-4v-4Zm4 8h-4v4h4v-4Zm-4 8h4v4h-4v-4Zm4 8h-4v4h4v-4Zm42 0h-4v4h4v-4Zm-49-40h-4v4h4v-4Zm0 8h-4v4h4v-4Zm-4 8h4v4h-4v-4Zm4 8h-4v4h4v-4Zm-4 8h4v4h-4v-4Zm4 8h-4v4h4v-4Z" fill="#F67E7E"/></svg>

<svg width="200" height="200" viewBox="0 0 200 200" fill="none" xmlns="http://www.w3.org/2000/svg">
<rect width="100" height="100" transform="matrix(1 0 0 -1 100 200)" fill="#79C8C7"/>
<path fill-rule="evenodd" clip-rule="evenodd" d="M100 200C44.7715 200 0 155.228 0 100C0 44.7715 44.7715 0 100 0C155.228 0 200 44.7715 200 100C200 155.228 155.228 200 100 200ZM100 133C81.7746 133 67 118.225 67 100C67 81.7746 81.7746 67 100 67C118.225 67 133 81.7746 133 100C133 118.225 118.225 133 100 133Z" fill="#012F34"/>
<path fill-rule="evenodd" clip-rule="evenodd" d="M200 156H196V160H200V156ZM189 156H193V160H189V156ZM189 164H193V168H189V164ZM193 172H189V176H193V172ZM189 180H193V184H189V180ZM193 188H189V192H193V188ZM189 196H193V200H189V196ZM186 156H182V160H186V156ZM186 164H182V168H186V164ZM182 172H186V176H182V172ZM186 180H182V184H186V180ZM182 188H186V192H182V188ZM186 196H182V200H186V196ZM200 164H196V168H200V164ZM179 156H175V160H179V156ZM179 164H175V168H179V164ZM175 172H179V176H175V172ZM179 180H175V184H179V180ZM175 188H179V192H175V188ZM179 196H175V200H179V196ZM200 172H196V176H200V172ZM172 156H168V160H172V156ZM172 164H168V168H172V164ZM168 172H172V176H168V172ZM172 180H168V184H172V180ZM168 188H172V192H168V188ZM172 196H168V200H172V196ZM200 180H196V184H200V180ZM165 156H161V160H165V156ZM165 164H161V168H165V164ZM161 172H165V176H161V172ZM165 180H161V184H165V180ZM161 188H165V192H161V188ZM165 196H161V200H165V196ZM200 188H196V192H200V188ZM158 156H154V160H158V156ZM158 164H154V168H158V164ZM154 172H158V176H154V172ZM158 180H154V184H158V180ZM154 188H158V192H154V188ZM158 196H154V200H158V196ZM200 196H196V200H200V196ZM151 156H147V160H151V156ZM151 164H147V168H151V164ZM147 172H151V176H147V172ZM151 180H147V184H151V180ZM147 188H151V192H147V188ZM151 196H147V200H151V196Z" fill="#F67E7E"/>
</svg>
